**kern	**silbe
*ICvox	*
*G:	*
*M4/4	*
*clefG2	*
r;	.
=1	=1
1r	.
=2	=2
2r	.
4r	.
8r	.
8g	You
=3	=3
4b	can't
8b	roll-
8b	-er
4g	skate
8g	in
8g	a
=4	=4
8d	buff-
8e	-a-
4d	-lo
4B	herd
8r	.
8d	you
=5	=5
4d	can't
8d	roll-
8d	-er
4f#	skate
8f#	in
8f#	a
=6	=6
8a	buff-
8g#	-a-
4a	-lo
4cc	herd
8r	.
8cc	you
=7	=7
4b	can't
8b	roll-
8b	-er-
4g	-skate
8g	in
8g	a
=8	=8
8d	buff-
8e	-a-
4d	-lo
8d	herd
8B	_
8r	.
8B	but
=9	=9
8d	you
8d	can
4d	be
8f#	hap-
8e	-py
8e	if
[8d	you've
=10	=10
8d]	_
8d	a
4d	mind
4c	to
8r	.
8g	You
=11	=11
4b	can't
8b	take
8b	a
8g	shower
8g	in
8g	a
[8d	para
=12	=12
8d]	_
4d	keet's
8d	cage
4B	_
8r	.
8B	you
=13	=13
4d	can't
8d	take
8d	a
4f#	shower
8f#	in
8f#	a
=14	=14
8a	par-
8g#	-a-
4a	-keet's
4cc	cage
8r	.
8cc	you
=15	=15
4b	can't
8b	take
8b	a
4g	shower
8B	in
8d	a
=16	=16
8e	par-
8c	-a-
4d	-keet's
8d	cage
8B	_
8r	.
8B	but
=17	=17
8d	you
8d	can
4d	be
8f#	hap-
8a	-py
8f#	if
[8f#	you've
=18	=18
8f#]	_
8e	a
4.f#	mind
4e	to
8c	All
=19	=19
8g	_
8g	you
8g	got-
8g	-ta
4g	do
8r	.
8e	is
=20	=20
8g	put
8g	your
4g	mind
16g	to
[8.b	it
8b]	_
8r	.
=21	=21
8a	knuck-
8f#	-le
4a	down
8a	buck-
8f#	-le
4a	down
=22	=22
16c#	do
8.d	it
16c#	do
8.d	it
16c#	do
8.d	it
8d	Well
8d	you
=23	=23
4b	can't
4b	go
8g	swimm-
8e	-in'
8g	in
8g	a
=24	=24
4d	base-
4d	-ball
8d	pool
8B	_
8r	.
8B	you
=25	=25
4d	can't
4d	go
8f#	swimm-
8f#	-in'
8f#	in
8f#	a
=26	=26
4a	base-
4a	-bass
4cc	pool
8r	.
8cc	you
=27	=27
4b	can't
4b	go
8g	swimm-
8e	-in'
8g	in
8g	a
=28	=28
4d	base-
4d	-ball
8d	pool
8B	_
8r	.
8d	but
=29	=29
8d	you
8d	can
4d	be
8f#	hap-
8a	-py
8f#	if
[8f#	you've
=30	=30
8f#]	_
8g	a
4g	mind
4g	to
4r	.
=31	=31
1r	.
=32	=32
1r	.
=33	=33
1r	.
=34	=34
1r	.
=35	=35
1r	.
=36	=36
1r	.
=37	=37
1r	.
=38	=38
*M2/4	*
2r	.
=39	=39
*M4/4	*
1r	.
=40	=40
2r	.
4r	.
8r	.
8g	You
=41	=41
4b	can't
4b	change
4g	film
8g	with
8g	a
=42	=42
8d	kid
4d	on
8d	your
8d	back
8B	_
8r	.
8B	you
=43	=43
4d	can't
4d	change
4f#	film
8f#	with
8f#	a
=44	=44
8a	kid
4a	on
8a	your
4cc	back
8r	.
8cc	you
=45	=45
4b	can't
4b	change
4g	film
8g	with
8g	a
=46	=46
8d	kid
4d	on
8d	your
8d	back
8B	_
8r	.
8B	but
=47	=47
8d	you
8d	can
4d	be
8f#	hap-
8e	-py
8e	if
[8d	you've
=48	=48
8d]	_
8d	a
4d	mind
4c	to
8r	.
8d	You
=49	=49
4b	can't
8b	drive
8b	a-
4g	-round
8g	with
8g	a
=50	=50
8d	tig-
8d	-er
8d	in
8d	your
8d	car
8B	_
8r	.
8B	you
=51	=51
4d	can't
8d	drive
8d	a-
4f#	-round
8f#	with
8f#	a
=52	=52
8a	tig-
8a	-er
8a	in
8a	your
8a	car
8dd	_
8r	.
8b	you
=53	=53
4dd	can't
8b	drive
8g	a-
4b	-round
8d	with
8d	a
=54	=54
8g	tig-
8d	-er
8d	in
8B	your
8B	car
8d	_
8r	.
8B	but
=55	=55
8d	you
8d	can
4d	be
8f#	hap-
8a	-py
8f#	if
[8f#	you've
=56	=56
8f#]	_
8e	a
4.f#	mind
4e	to
8c	All
=57	=57
8g	_
8g	you
8g	got-
8g	-ta
4g	do
8r	.
8e	is
=58	=58
8g	put
8g	your
4g	mind
16g	to
[8.b	it
8b]	_
8r	.
=59	=59
8a	knuck-
8f#	-le
4a	down
8a	buck-
8f#	-le
4a	down
=60	=60
16c#	do
8.d	it
16c#	do
8.d	it
16c#	do
8.d	it
8d	Well
8d	you
=61	=61
4b	can't
8b	roll-
8b	-er
4g	skate
8g	in
8g	a
=62	=62
8d	buff-
8e	-a-
4d	-lo
4B	herd
8r	.
8d	you
=63	=63
4d	can't
8d	roll-
8d	-er
4f#	skate
8f#	in
8f#	a
=64	=64
8a	buff-
8g#	-a-
4a	-lo
4cc	herd
8r	.
8cc	you
=65	=65
4b	can't
8b	roll-
8b	-er-
4g	-skate
8g	in
8g	a
=66	=66
8d	buff-
8e	-a-
4d	-lo
8d	herd
8B	_
8r	.
8B	but
=67	=67
8d	you
8d	can
4d	be
8f#	hap-
8e	-py
8e	if
[8d	you've
=68	=68
8d]	_
8d	a
4d	mind
4c	to
8r	.
8d	You
=69	=69
4b	can't
4b	go
8g	fish-
8g	-in'
8g	in
8g	a
=70	=70
8d	wat-
8d	-er-
8d	-mel-
8d	-on
8d	patch
8B	_
8r	.
8B	you
=71	=71
4d	can't
4d	go
8f#	fish-
8f#	-in'
8f#	in
8f#	a
=72	=72
8a	wat-
8a	-er-
8a	-mel-
8a	-on
8a	patch
8dd	_
8r	.
8d	You
=73	=73
4b	can't
4b	go
8dd	fish-
8b	-in'
8a	in
8g	a
=74	=74
8d	wat-
8e	-er-
8d	-mel-
8c	-on
4B	patch
8r	.
8d	but
=75	=75
8d	you
8d	can
4d	be
8f#	hap-
8a	-py
8f#	if
[8f#	you've
=76	=76
8f#]	_
8g	a
4g	mind
4g	to
8r	.
8g	You
=77	=77
4b	can't
8b	roll-
8b	-er
4g	skate
8d	in
8d	a
=78	=78
8g	buff-
8g	-a-
8g	-lo
8g	herd
4d	_
8r	.
8d	you
=79	=79
4g	can't
8g	rol-
8g	-ler
8g	skate
8b	_
8b	in
8dd	a
=80	=80
8cc	buff-
8cc	-a-
4b	-lo
4g	herd
8r	.
8g	You
=81	=81
4b	can't
8b	roll-
8b	-er
4g	skate
8d	in
8d	a
=82	=82
8g	buff-
8g	-a-
8g	-lo
8g	herd
4d	_
8r	.
8B	but
=83	=83
8d	you
8d	can
4d	be
8f#	hap-
8e	-py
8e	if
[8d	you've
=84	=84
8d]	_
8d	a
4d	mind
4c	to
4r	.
r;	.
r;	.
*-	*-
!!!ENC: Nathaniel Condit-Schultz
!!!MBID: bb470b8f-ab52-46b2-a3f6-0c5cfee71040
